icon-themes/sifr_svg/cmd/lc_rotateleft.svg

<svg viewBox="0 0 24 24" xmlns="http://www.w3.org/2000/svg"><g fill="#555753"><path d="m2 2v20h10l-8-20zm14 0c-.26529 0-.53057 0-.71875.28125l-4 4-.28125.28125v.875l.28125.28125 4 4c.18817.18125.294486.28125.71875.28125h1v-1c0-.2653-.1-.53058-.28125-.71875l-2.28125-2.28125h.5625a4 4 0 0 1 4 4 4 4 0 0 1 -4 4v2a6 6 0 0 0 6-6 6 6 0 0 0 -6-6h-.5625l2.28125-2.28125c.18125-.18818.28125-.45344.28125-.71875v-1z"/><path d="m22 20-20-8v10h20z" opacity=".35"/></g></svg>

<svg xmlns="http://www.w3.org/2000/svg" viewBox="0 0 24 24">
  <path
     style="fill:#555753"
     d="M 2 2 L 2 22 L 12 22 L 4 2 L 2 2 z M 16 2 C 15.73471 2 15.46943 2 15.28125 2.28125 L 11.28125 6.28125 L 11 6.5625 L 11 7.4375 L 11.28125 7.71875 L 15.28125 11.71875 C 15.46942 11.9 15.575736 12 16 12 L 17 12 L 17 11 C 17 10.7347 16.9 10.46942 16.71875 10.28125 L 14.4375 8 L 15 8 A 4 4 0 0 1 19 12 A 4 4 0 0 1 15 16 L 15 18 A 6 6 0 0 0 21 12 A 6 6 0 0 0 15 6 L 14.4375 6 L 16.71875 3.71875 C 16.9 3.53057 17 3.26531 17 3 L 17 2 L 16 2 z "
     />
  <path
     style="opacity:0.35;fill:#555753"
     d="M 22,20 2,12 v 10 h 20 z"
     />
</svg>
